.local/share/icons/Gruvbox-Plus-Dark/panel/24/qbittorrent-tray.svg

<svg xmlns="http://www.w3.org/2000/svg" width="24" height="24" version="1">
 <defs>
  <style id="current-color-scheme" type="text/css">
   .ColorScheme-Text { color:#ebdbb2; } .ColorScheme-Highlight { color:#458588; }
  </style>
 </defs>
 <path style="fill:currentColor" class="ColorScheme-Text" d="m 14,4 a 1,1 0 0 0 -1,1 v 11 h 2 V 15.458984 C 15.607485,15.81219 16.297298,15.998156 17,16 19.209139,16 21,14.209139 21,12 21,9.790861 19.209139,8 17,8 16.29748,8.0013 15.607679,8.186556 15,8.539063 V 5 A 1,1 0 0 0 14,4 Z M 7,8 c -2.209139,0 -4,1.790861 -4,4 0,2.209139 1.790861,4 4,4 0.7025232,-0.0013 1.3923246,-0.188495 2,-0.541016 V 19 a 1,1 0 0 0 1,1 1,1 0 0 0 1,-1 V 8 H 9 V 8.541016 C 8.3925148,8.18781 7.7027016,8.001855 7,8 Z m 0,2 c 1.1045695,0 2,0.895431 2,2 0,1.104569 -0.8954305,2 -2,2 -1.1045695,0 -2,-0.895431 -2,-2 0,-1.104569 0.8954305,-2 2,-2 z m 10,0 c 1.104569,0 2,0.895431 2,2 0,1.104569 -0.895431,2 -2,2 -1.104569,0 -2,-0.895431 -2,-2 0,-1.104569 0.895431,-2 2,-2 z"/>
</svg>

<svg width="24" height="24" version="1.1" xmlns="http://www.w3.org/2000/svg">
  <defs>
    <style id="current-color-scheme" type="text/css">.ColorScheme-Text { color:#ebdbb2; } .ColorScheme-Highlight { color:#458588; } .ColorScheme-NeutralText { color:#fe8019; } .ColorScheme-PositiveText { color:#689d6a; } .ColorScheme-NegativeText { color:#fb4934; }</style>
  </defs>
  <path class="ColorScheme-Text" d="m14 4a1 1 0 0 0-1 1v11h2v-0.541c0.607 0.353 1.297 0.539 2 0.541 2.209 0 4-1.791 4-4 0-2.209-1.791-4-4-4-0.703 0.0013-1.392 0.1866-2 0.5391v-3.539a1 1 0 0 0-1-1zm3 6c1.105 0 2 0.895 2 2s-0.895 2-2 2-2-0.895-2-2 0.895-2 2-2z" fill="currentColor"/>
  <path class="ColorScheme-Text" d="m7 8c-2.209 0-4 1.791-4 4 0 2.209 1.791 4 4 4 0.7025-1e-3 1.392-0.188 2-0.541v3.541a1 1 0 0 0 1 1 1 1 0 0 0 1-1v-11h-2v0.541c-0.6075-0.3532-1.297-0.5391-2-0.541zm0 2c1.105 0 2 0.895 2 2s-0.8954 2-2 2-2-0.895-2-2 0.8954-2 2-2z" fill="currentColor" opacity=".3"/>
</svg>
